packages/icons/svg/Fill/chevron-right.svg

<svg fill="none" height="24" viewBox="0 0 24 24" width="24" xmlns="http://www.w3.org/2000/svg"><path clip-rule="evenodd" d="m10.5 17c-.256 0-.51199-.098-.70699-.293-.391-.391-.391-1.023 0-1.414l3.30499-3.305-3.17999-3.293c-.383-.398-.372-1.031.025-1.414.39799-.383 1.03099-.372 1.41399.024l3.862 4c.379.393.374 1.016-.012 1.402l-4 4c-.195.195-.451.293-.707.293" fill="#6b7280" fill-rule="evenodd"/></svg>

<svg width="24" height="24" viewBox="0 0 24 24" fill="none" xmlns="http://www.w3.org/2000/svg">
<g id="Icon/Fill/chevron-right">
<path id="Mask" fill-rule="evenodd" clip-rule="evenodd" d="M10.5 17C10.244 17 9.98801 16.902 9.79301 16.707C9.40201 16.316 9.40201 15.684 9.79301 15.293L13.098 11.988L9.91801 8.695C9.53501 8.297 9.54601 7.664 9.94301 7.281C10.341 6.898 10.974 6.909 11.357 7.305L15.219 11.305C15.598 11.698 15.593 12.321 15.207 12.707L11.207 16.707C11.012 16.902 10.756 17 10.5 17Z" fill="#000000"/>
</g>
</svg>
